actions/22x22-light/media-playlist-repeat.svg

<svg viewBox="0 0 22 22" xmlns="http://www.w3.org/2000/svg"><path d="m16 16h-10v-3l-4 4 4 4v-3h12v-6h-2m-10-6h10v3l4-4-4-4v3h-12v6h2z" fill="#4d4d4d"/></svg>

<svg xmlns="http://www.w3.org/2000/svg" viewBox="0 0 22 22">
  <defs id="defs3051">
    <style type="text/css" id="current-color-scheme">
      .ColorScheme-Text {
        color:#4d4d4d
      }
      </style>
  </defs>
 <path 
     style="fill:currentColor;fill-opacity:1;stroke:none"      
	 class="ColorScheme-Text"
     d="m 16,16 -10,0 0,-3 -4,4 4,4 0,-3 12,0 0,-6 -2,0 M 6,6 16,6 16,9 20,5 16,1 16,4 4,4 4,10 6,10 6,6 Z"
     />
</svg>
